X:1
T:Farewell to Erin
N:Originally a Scottish tune: "The Scotsman's Farewell to Ireland"
N:Bars 1-6 are played one octave up by flutes, whistles and pipes.
Z:Philippe Murphy 2007-02-03
M:4/4
L:1/8
R:reel
K:Ador
A,3 C E3 F | GEDB, G,B,DB, | A,3 C E3 F | GEDB, EA,A,G, |
A,3 C E3 F | GEDB, G,2 g2 | edeg a2ba| gedB BAA2 :|
~a3 b agef | ~g3 a gede | ~a3 b agef | gedB BAA2 |
agef ~g3 e | dedB GABd | cBAB cdea | gedB BAA2 :|
eABA eABA | ~d3 B GABd | eABA ~e3 a | gedB BAA2 |
eABA eABA | ~d3 B GABd | cBAB cdea | gedB BAA2 :|
ae^ce ae^ce | gdBd gdBd | ae^ce ~a3 f | gedB BAA2 |
agef ~g3 e | dedB GABd | cBAB cdea | gedB BAA2 :|
